X:1
T:5 Lieder, Op.4
T:Auf den grünen Auen
T:5 Lieder, Op.4
T:2. „Auf den grünen Auen” 
T:Clara Faisst 
T:Emanuel Geibel
T:Creative Commons copyright waiver (CC0 1.0 Universal)
T:Creative Commons copyright waiver (CC0 1.0 Universal)
T:Creative Commons copyright waiver (CC0 1.0 Universal)
C:Clara Faisst
Z:Emanuel Geibel
Z:Creative Commons copyright waiver (CC0 1.0 Universal)
%%score 1 { 2 | ( 3 4 5 ) }
L:1/8
Q:1/4=94
M:9/8
K:E
V:1 treble nm="Singstimme\nVoice"
V:2 treble nm="Pianoforte"
V:3 bass 
V:4 bass 
V:5 bass 
V:1
"^Ruhig bewegt" z E G (cB) c B2 B | G2 G A2 c F2 z | B2 B (dB)!<(! ^^F (GB) e!<)! | %3
w: Auf den grü- * nen Au- en|wallt der Son- nen- schein,|Berg und Bur- * gen schau- * en|
 (g^f) e (dc)!>(! B (G2!>)! ^A)[Q:1/4=82] |[Q:1/4=94] z2 z z!mp! F B (cd) e | d2 B z F F (B^A) G | %6
w: win- * kend in  _ den Rhein,  _|weiss von Blü- * ten-|se- gen liegt mein Pfad  _ be-|
 ^A3 z2 z (=F=G) _A | =G2 _B _e2 e (^d=e) ^f[Q:1/4=82] |[Q:1/4=94] (=Be) B B3- B2 z | %9
w: streut, durch * das|Thal ent- ge- gen schwebt * mir|Fest- * ge- läut.  _|
 z9[Q:1/4=88] |[Q:1/4=94] z B B e2 c B2 B | c2 G (AB) c F3 | B2 B (dB) ^^F (GB) e | %13
w: |Wie mir da im In- nern|je- der Schat- * ten weicht,|und ein süss  _ Er- in- * nern|
!p!"^dolce" (gf) e (dc)!>(! B"^ritard."[Q:1/4=88] (G2!>)! ^A) | %14
w: won- * nig mich * be- schleicht:  _|
!p!"^dolciss."[Q:1/4=94] B3- B=d =g (dB) =G | A3 A2 z z2 z | =d3- d2 A A2 A | B6 z2 z | z9 | z9 | %20
w: Lieb- * * lich- ste  _ der|Frau- en,|still  _ ge- denk ich|dein!|||
 z B d (fg) d e2 e | e2 e (efe cA) F | G6 z2 z | z9 | z9 | z9 | z9 |] %27
w: Auf den grü- * nen Au- en|wallt der Son- * * * * nen-|schein.|||||
V:2
!pp! z/ (.[egb].[Beg].[egb].[egc'].[egb].[cea].[Beg].[ABf].[GBe]/) | %1
 z/ (.[GBc].[Bcg].[cgb]/) z/ (.[FAc].[Acf].[cfa]) (.[fac'].[cfa].[Acf]/) | %2
 z/ (.[Bfb].[Bdf].[FBd]/)"_cresc." z/ (.[B^^fb].[Bdf].[^^FBd]/) z/ (.[Bgb].[Beg].[Begb]/) | %3
 z/ (.[egc'].[^fgb].[ege']/) z/ (.[dfd'].[efc'].[dfb]/) z/"_rit." (.[Gef].[Gef].[^Aef]/) | %4
!p! z/ (.[Bdg].[Bdf].[Bdg].[Bdf].[Bdb].[Bdf].[F^Ac].[FAd].[FAe]/) | %5
 z/ (.[Bdg].[Bdf].[Bdg].[Bdf].[Bdb].[Bdf].[Bdg].[cd^a].[Bdb]/) | %6
 z/ (.[_e=g_e'].[eg_b].[Beg].[_AB=f].[GBe].[EGB].[=D=FB].[EGB].[FAB]/) | %7
 z/!>(! ([=g_b=g'][gb=f'][gb_e'][_eg_b][_Beg]!>)![=GBe]/ z/"_rit." [^F=A^d][FA^c][FA=B]/) | %8
 z/ (.[egc'].[egb].[Beg].[GBe].[EGc]!<(!.[EGB].[FBdf].[GBeg].[Adfa]/)!<)! | %9
!f! z/ (.[cegc'].[Begb].[cegc'].[Begb]"^ritard.".[GBeg]"_dim.".[EGBe].[FBdf].[GBeg].[Adfa]/) | %10
!p! z/"^a tempo" (.[Begb].[Beg].[egb].[egc'].[egb].[cea].[Beg].[ABf].[GBe]/) | %11
 z/ (.[GBc].[Bcg].[cgb]/) z/ (.[FAc].[Acf].[cfa] .[fac'].[cfa].[Acf]/) | %12
 z/ (.[Bfb].[Bdf].[FBd]/)"_cresc." z/ (.[B^^fb].[Bdf].[^^FBd]/) z/ (.[Bgb].[Beg].[Begb]/) | %13
!p!"_dolce" z/ (.[egc'].[^fgd'].[ege'].[dfd'].[efc'][Bdb]/)"_ritard." z/ (.[Gef].[Gef].[^Aef]/) | %14
"_dolciss." !arpeggio![B=d=gb]3!pp! !arpeggio![dgb]3 !arpeggio![dgb]3 | %15
 !arpeggio![ea=c']3 !arpeggio![eac']3 !arpeggio![eac']3 | %16
 !arpeggio![=dfa=c']3 !arpeggio![dfac']3 !arpeggio![dfac']3 | !arpeggio![=d=gb]3- [dgb]3 z2 z | %18
!pp!"^espressivo""_dolce" ([=DFA=d]3- [D-F-Ad]2 [DFA] [F-A-c]2 [FAc]) | %19
 (!arpeggio![=D=GB]3 !arpeggio![GB=d]3 !arpeggio![d=gb]3) | %20
 z/ (.[B^db].[Bdf].[Bdb].[Bda].[Bd^g].[Bd^^f]/) z/ (.[Beg].[GBe].[EGB]/) | %21
 z/ (.[eac'].[cea].[eac'].[ac'e'].[ac'^f'].[ac'e'].[ac'f'].[ac'e'][ac'e'f']/) | %22
 z/!8va(! (.[gbe'g'].[gbe'].[egb].[gbe'].[egb][Beg]/)!8va)! z/ (.[FBdf]!<(!.[GBeg]!mp!.[Adfa]/)!<)! | %23
 z/ (.[cegc'].[Begb].[GBeg].[EGBe].[EGB]!p![B,EG])!mp!!>(! (.[Beg].[EGB].[B,EG]/)!>)! | %24
!p! z/"_dolce express. la melodia" (D/F/A/B/d/) z/ (F/A/B/d/f/) z/!<(! (A/B/d/f/!mp!b/)!<)! | %25
 z/!<(! (B/e/f/g/!mf!b/!<)!!>(! g/f/e/B/G/F/!>)!!p! E/[I:staff +1]B,/G,/E,/B,,/G,,/) | %26
[I:staff -1] z9 |] %27
V:3
 (E,,[G,B,E][B,EG])[I:staff -1] ([EGc][EGB][CEA]) ([B,EG][I:staff +1][A,B,F][G,B,E]) | %1
 [E,,E,][I:staff -1][G,B,C][B,CG][I:staff +1] [E,,E,][I:staff -1][A,CF][CFA] [FAc][CFA][A,CF] | %2
[I:staff +1] [D,,D,][D,F,B,][F,B,D] [D,,D,][I:staff -1][B,D^^F][I:staff +1][^^F,B,D] E,,[I:staff -1][B,EG][G,B,E] | %3
[I:staff +1] [C,,C,][I:staff -1][^FGd][EGc]!>(![I:staff +1] [F,,F,][I:staff -1][EFc][DFB][I:staff +1] F,,F,[I:staff -1]F!>)! | %4
[I:staff +1] x[I:staff -1] [B,DF][B,DG] [B,DF][I:staff +1][F,B,D][D,F,B,] x [F,^A,D][F,A,C] | %5
 x[I:staff -1] [B,DF][B,DG][B,DF][I:staff +1][F,B,D][D,F,B,] x[I:staff -1] [CD^A][B,DG] | %6
[I:staff +1] x[I:staff -1] [_E=G_B][_B,EG][I:staff +1] [_A,_B,=F][=G,B,_E][_E,G,B,] x [E,G,B,][=F,A,B,] | %7
 x[K:treble] [=G_B=f][GB_e][_EGB][_B,EG][=G,B,E][K:bass] x [^F,=A,^C][F,A,=B,] | %8
"_marcato" x[I:staff -1] [EGB][B,EG][I:staff +1] [B,DG]!>!G,,[E,G,B,] !^!B,,,[G,B,E][B,DF] | %9
 E,,[B,,E,G,][E,G,B,] [G,B,E]!>!G,,[E,G,B,] !^!B,,,[G,B,E][B,DF] | %10
 E,,[G,B,E][I:staff -1][B,EG] [EGc][EGB][CEA] [B,EG][I:staff +1][A,B,F][G,B,E] | %11
 [E,,E,][G,B,C][I:staff -1][B,CG][I:staff +1] [E,,E,][F,A,C][I:staff -1][A,CF] [CFA][A,CF][I:staff +1][F,A,C] | %12
 [D,,D,][D,F,B,][F,B,D] [D,,D,][I:staff -1][B,D^^F][I:staff +1][^^F,B,D] E,,[I:staff -1][B,EG][I:staff +1][G,B,E] | %13
 [C,,C,][I:staff -1][^FGd][EGc][I:staff +1][F,,F,][I:staff -1][EFc][DFB]!>(![I:staff +1] F,,F,-!>)![F,F] | %14
 z/ (=G,/[I:staff -1]=D/=G/=A/B/)[I:staff +1] z/ (G,/[I:staff -1]D/G/A/B/)[I:staff +1] z/ (G,/[I:staff -1]D/G/A/B/) | %15
[I:staff +1] z/ (=G,/[I:staff -1]E/A/B/=c/)[I:staff +1] z/ (G,/[I:staff -1]E/A/B/c/)[I:staff +1] z/ (G,/[I:staff -1]E/A/B/c/) | %16
[I:staff +1] z/ (=G,/[I:staff -1]=D/A/B/=c/)[I:staff +1] z/ (G,/[I:staff -1]D/A/B/c/)[I:staff +1] z/ (G,/[I:staff -1]D/A/B/c/) | %17
[I:staff +1] z/ (=G,/[I:staff -1]=D/=G/A/B/)[I:staff +1] z/ (G,/[I:staff -1]D/G/A/B/)[I:staff +1] z/ (=G,,/=D,/=G,/A,/B,/) | %18
 z/ (=G,,/=D,/A,/B,/=C/) z/ (G,,/D,/A,/B,/C/) z/ (G,,/D,/A,/B,/C/) | %19
 z/ (=G,,/=D,/=G,/A,/B,/) z/ (G,/[I:staff -1]=D/=G/A/B/)[I:staff +1] z/ (G,/[I:staff -1]=D/=G/A/B/) | %20
[I:staff +1] F,[I:staff -1][B,^DF][I:staff +1][F,B,D] B,,[I:staff -1][B,D^G][B,D^^F][I:staff +1] E,,[B,,E,^G,][E,G,B,] | %21
 x!<(![I:staff -1] [CEA][EAc][Ace][Ac^f][Ace][Acf][Ace]!<)![Acef] | %22
[I:staff +1] E,,[E,G,B,][G,B,E]!>(![I:staff -1] [B,EG][G,B,E]!>)!!p![I:staff +1][E,G,B,] B,,,[G,B,E][I:staff -1][B,DF] | %23
[I:staff +1] E,,[I:staff -1][B,EG][I:staff +1][G,B,E]!>(! [E,G,B,][G,,B,,E,][B,,E,G,]!>)! [E,G,B,][G,,B,,E,][B,,E,G,] | %24
 B,3- B,2 F, F,2 F, | G,6- G,3- | G,6 z2 z |] %27
V:4
 x9 | x9 | x9 | x9 | B,,,6 F,,3 | B,,,6 G,,3 | _E,,6 _B,,,3 | _E,,6[K:treble][K:bass] !>!=B,,,3 | %8
 !^!E,,3- E,, G,,2 B,,,3 | !^!E,,3- E,, G,,2 B,,,3 | x9 | x9 | x9 | x6 F,,3 | x9 | x9 | x9 | x9 | %18
 x9 | x9 | x9 | A,,6- A,,3 | E,,6 B,,,3 | x9 | [B,,D,F,]3- [B,,D,F,]3 [B,,D,]3 | %25
 !arpeggio![E,,B,,]6- [E,,B,,-]3 | [E,,B,,]6 x3 |] %27
V:5
 x9 | x9 | x9 | x9 | x9 | x9 | x9 | x[K:treble] x5[K:bass] x3 | x9 | x9 | x9 | x9 | x9 | x9 | x9 | %15
 x9 | x9 | x9 | x9 | x9 | x9 | x9 | x9 | x9 | x3 B,,,3- B,,,3 | x9 | x9 |] %27

